icons/1_Primary/SendGrid.svg

<svg xmlns="http://www.w3.org/2000/svg" width="1024" height="1024" fill="none">
   <g clip-path="url(#a)">
      <path fill="#9ABEFF" d="M512 1024c282.77 0 512-229.23 512-512S794.77 0 512 0 0 229.23 0 512s229.23 512 512 512Z"/>
      <path fill="#fff" d="M290.5 591.72h141.78V733.5H290.5V591.72Zm292.39 0H441.11V733.5h141.78V591.72Zm-292.39-8.83h141.78V441.11H290.5v141.78Zm150.61 0h141.78V441.11H441.11v141.78Zm150.61-150.61H733.5V290.5H591.72v141.78Zm141.78 8.82H591.72v141.79H733.5V441.1Zm-292.39-8.82h141.78V290.5H441.11v141.78Z"/>
   </g>
   <defs>
      <clipPath id="a">
         <path fill="#fff" d="M0 0h1024v1024H0z"/>
      </clipPath>
   </defs>
</svg>

<svg width="1024" height="1024" viewBox="0 0 1024 1024" fill="none" xmlns="http://www.w3.org/2000/svg">
<g clip-path="url(#clip0_2_3435)">
<path d="M512 1024C794.77 1024 1024 794.77 1024 512C1024 229.23 794.77 0 512 0C229.23 0 0 229.23 0 512C0 794.77 229.23 1024 512 1024Z" fill="#9ABEFF"/>
<path d="M290.5 591.72H432.28V733.5H290.5V591.72ZM582.89 591.72H441.11V733.5H582.89V591.72ZM290.5 582.89H432.28V441.11H290.5V582.89ZM441.11 582.89H582.89V441.11H441.11V582.89ZM591.72 432.28H733.5V290.5H591.72V432.28ZM733.5 441.1H591.72V582.89H733.5V441.1ZM441.11 432.28H582.89V290.5H441.11V432.28Z" fill="white"/>
</g>
<defs>
<clipPath id="clip0_2_3435">
<rect width="1024" height="1024" fill="white"/>
</clipPath>
</defs>
</svg>
